src/icons/adonis.svg

<svg viewBox="0 0 180 180" xmlns="http://www.w3.org/2000/svg">
  <path
    d="m79.579 25.741-66.481 115.15h63.305l11.218-19.433H47.613L79.804 65.7l20.005 34.649 11.423-19.783zm42.118 50.221-45.203 78.297h90.408z"
    style="
      fill: #7c4dff;
      paint-order: fill markers stroke;
      stroke-width: 1.0631;
    "
  />
</svg>

<svg viewBox="0 0 180 180" xmlns="http://www.w3.org/2000/svg">
  <path
    d="M79.579 25.741L13.098 140.891H76.403L87.621 121.458H47.613L79.804 65.7L99.809 100.349L111.232 80.566L79.579 25.741ZM121.697 75.962L76.494 154.259H166.902L121.697 75.962Z"
    fill="#7C4DFF"
  />
</svg>
